Input/CoAs/Charge/Ordinary/Saltire/couped.svg

<?xml version="1.0" encoding="UTF-8" standalone="no"?>
<svg
   xmlns:dc="http://purl.org/dc/elements/1.1/"
   xmlns:cc="http://creativecommons.org/ns#"
   xmlns:rdf="http://www.w3.org/1999/02/22-rdf-syntax-ns#"
   xmlns:svg="http://www.w3.org/2000/svg"
   xmlns="http://www.w3.org/2000/svg"
   xmlns:sodipodi="http://sodipodi.sourceforge.net/DTD/sodipodi-0.dtd"
   xmlns:inkscape="http://www.inkscape.org/namespaces/inkscape"
   viewBox="0 0 100 110"
   version="1.1"
   id="svg23"
   sodipodi:docname="saltire_couped.svg"
   inkscape:version="0.92.4 (5da689c313, 2019-01-14)">
  <metadata
     id="metadata29">
    <rdf:RDF>
      <cc:Work
         rdf:about="">
        <dc:format>image/svg+xml</dc:format>
        <dc:type
           rdf:resource="http://purl.org/dc/dcmitype/StillImage" />
        <dc:title />
      </cc:Work>
    </rdf:RDF>
  </metadata>
  <defs
     id="defs27" />
  <sodipodi:namedview
     pagecolor="#ffffff"
     bordercolor="#666666"
     borderopacity="1"
     objecttolerance="10"
     gridtolerance="10"
     guidetolerance="10"
     inkscape:pageopacity="0"
     inkscape:pageshadow="2"
     inkscape:window-width="1868"
     inkscape:window-height="1016"
     id="namedview25"
     showgrid="false"
     inkscape:zoom="4"
     inkscape:cx="-20.0967"
     inkscape:cy="89.08455"
     inkscape:window-x="52"
     inkscape:window-y="27"
     inkscape:window-maximized="1"
     inkscape:current-layer="svg23"
     showguides="true"
     inkscape:guide-bbox="true" />
  <g
     aria-label="X"
     style="font-style:normal;font-variant:normal;font-weight:normal;font-stretch:normal;font-size:133.33332825px;line-height:1;font-family:sans-serif;-inkscape-font-specification:'sans-serif, Normal';font-variant-ligatures:normal;font-variant-position:normal;font-variant-caps:normal;font-variant-numeric:normal;font-variant-alternates:normal;text-indent:0;text-align:center;text-decoration:none;text-decoration-line:none;text-decoration-style:solid;text-decoration-color:#000000;letter-spacing:0px;word-spacing:0px;text-transform:none;writing-mode:lr-tb;direction:ltr;text-orientation:mixed;dominant-baseline:auto;baseline-shift:baseline;text-anchor:middle;white-space:normal;shape-padding:0;opacity:1;vector-effect:none;fill:#000000;fill-opacity:1;stroke:none;stroke-width:1.31747186;stroke-linecap:butt;stroke-linejoin:miter;stroke-miterlimit:4;stroke-dasharray:none;stroke-dashoffset:0;stroke-opacity:1"
     id="text1751"
     transform="matrix(0.8,0,0,0.7201572,11.075583,2.6129492)">
    <path
       d="M 11.132121,19.864832 H 25.2597 L 49.413315,48.771225 73.697133,19.864832 H 87.824717 L 56.574763,57.208766 89.908047,97.625632 H 75.780464 L 48.436754,64.552552 20.897737,97.625632 H 6.7050471 L 41.405514,56.115011 Z"
       id="path1753"
       inkscape:connector-curvature="0"
       style="stroke-width:1.31747186" />
  </g>
</svg>

<?xml version="1.0" encoding="UTF-8"?>
<svg version="1.1" viewBox="0 0 100 110" xmlns="http://www.w3.org/2000/svg" xmlns:cc="http://creativecommons.org/ns#" xmlns:dc="http://purl.org/dc/elements/1.1/" xmlns:rdf="http://www.w3.org/1999/02/22-rdf-syntax-ns#">
 <metadata>
  <rdf:RDF>
   <cc:Work rdf:about="">
    <dc:format>image/svg+xml</dc:format>
    <dc:type rdf:resource="http://purl.org/dc/dcmitype/StillImage"/>
    <dc:title/>
   </cc:Work>
  </rdf:RDF>
 </metadata>
 <g transform="matrix(.6932 0 0 .624 16.24 8.262)" dominant-baseline="auto" style="font-variant-alternates:normal;font-variant-caps:normal;font-variant-ligatures:normal;font-variant-numeric:normal;font-variant-position:normal;shape-padding:0;text-decoration-color:#000000;text-decoration-line:none;text-decoration-style:solid;text-indent:0;text-orientation:mixed;text-transform:none;white-space:normal" aria-label="X">
  <path d="m11.13 19.86h14.13l24.15 28.91 24.28-28.91h14.13l-31.25 37.34 33.33 40.42h-14.13l-27.34-33.07-27.54 33.07h-14.19l34.7-41.51z" stroke-width="1.317"/>
 </g>
</svg>
